Simply-Blue-Circles/scalable/apps/qreator.svg

<svg xmlns="http://www.w3.org/2000/svg" width="48" height="48" viewBox="0 0 12.7 12.7"><path d="M6.34.07a6.29 6.29 0 0 0-6.29 6.3 6.29 6.29 0 0 0 6.3 6.28 6.29 6.29 0 0 0 6.28-6.29A6.29 6.29 0 0 0 6.34.07zM6.32 1l.01.01a5.4 5.4 0 0 1 5.4 5.4 5.4 5.4 0 0 1-5.4 5.41 5.4 5.4 0 0 1-5.41-5.4A5.4 5.4 0 0 1 6.32 1zM2.91 2.91v2.58h2.58V2.91H2.91zm3.01 0v.43h.43v-.43h-.43zm.43.43v.43h-.43v.86h.43V4.2h.43v-.86h-.43zm0 1.29v.86h.43v-.86h-.43zm0 .86h-.43v.43h.43v-.43zm0 .43v.43h.43v-.43h-.43zm.43.43v.43h.86v-.86h-.43v.43h-.43zm.86.43v.43h.43v.43h.43v-.86h-.86zm0 .43h-.43v.43h.43v-.43zm-.43.43h-.43v.43h.43v-.43zm0 .43v.43h.43v-.43h-.43zm.43.43v.43h.43V8.5h-.43zm.43 0h.86v-.43h-.86v.43zm.86 0v1.29h.43v-.43h.43v-.43h-.43V8.5h-.43zm-.86.43v.86h.43v-.86h-.43zm-.43 0h-.86v.86h.86v-.86zm-.86 0v-.86h-.86v.43h.43v.43h.43zm-.43 0h-.43v.86h.43v-.86zm.43-1.29v-.86h-.86v.43h.43v.43h.43zm-.86-.86v-.86h-.43v.43h-.43v.43h.86zm-.86-.43v-.43H4.2v.43h.86zm-.86 0h-.43v-.43h-.86v.86H4.2v-.43zm3.01-3.44v2.58h2.58V2.91H7.21zm-3.87.43h1.72v1.72H3.34V3.34zm4.3 0h1.72v1.72H7.64V3.34zm-3.87.43v.86h.86v-.86h-.86zm4.3 0v.86h.86v-.86h-.86zm0 2.15v.43h.86v.43h.86v-.43h-.43v-.43H8.07zM2.91 7.21v2.58h2.58V7.21H2.91zm6.02 0v.43h.43v.43h.43v-.86h-.86zm-5.59.43h1.72v1.72H3.34V7.64zm.43.43v.86h.86v-.86h-.86z" fill="#2c89a0"/></svg>

<?xml version="1.0" encoding="UTF-8" standalone="no"?>
<svg
   xmlns:dc="http://purl.org/dc/elements/1.1/"
   xmlns:cc="http://creativecommons.org/ns#"
   xmlns:rdf="http://www.w3.org/1999/02/22-rdf-syntax-ns#"
   xmlns:svg="http://www.w3.org/2000/svg"
   xmlns="http://www.w3.org/2000/svg"
   xmlns:sodipodi="http://sodipodi.sourceforge.net/DTD/sodipodi-0.dtd"
   xmlns:inkscape="http://www.inkscape.org/namespaces/inkscape"
   width="48"
   height="48"
   viewBox="0 0 12.7 12.7"
   version="1.1"
   id="svg4"
   sodipodi:docname="qreator.svg"
   inkscape:version="0.92.4 (5da689c313, 2019-01-14)">
  <metadata
     id="metadata10">
    <rdf:RDF>
      <cc:Work
         rdf:about="">
        <dc:format>image/svg+xml</dc:format>
        <dc:type
           rdf:resource="http://purl.org/dc/dcmitype/StillImage" />
        <dc:title></dc:title>
      </cc:Work>
    </rdf:RDF>
  </metadata>
  <defs
     id="defs8" />
  <sodipodi:namedview
     pagecolor="#ffffff"
     bordercolor="#666666"
     borderopacity="1"
     objecttolerance="10"
     gridtolerance="10"
     guidetolerance="10"
     inkscape:pageopacity="0"
     inkscape:pageshadow="2"
     inkscape:window-width="1087"
     inkscape:window-height="480"
     id="namedview6"
     showgrid="false"
     inkscape:zoom="4.9166667"
     inkscape:cx="2.1355932"
     inkscape:cy="24"
     inkscape:window-x="0"
     inkscape:window-y="25"
     inkscape:window-maximized="0"
     inkscape:current-layer="svg4" />
  <path
     d="M 6.34,0.07 A 6.29,6.29 0 0 0 0.05,6.37 6.29,6.29 0 0 0 6.35,12.65 6.29,6.29 0 0 0 12.63,6.36 6.29,6.29 0 0 0 6.34,0.07 Z M 6.32,1 6.33,1.01 a 5.4,5.4 0 0 1 5.4,5.4 5.4,5.4 0 0 1 -5.4,5.41 A 5.4,5.4 0 0 1 0.92,6.42 5.4,5.4 0 0 1 6.32,1 Z M 2.91,2.91 V 5.49 H 5.49 V 2.91 Z m 3.01,0 V 3.34 H 6.35 V 2.91 Z M 6.35,3.34 V 3.77 H 5.92 V 4.63 H 6.35 V 4.2 H 6.78 V 3.34 Z m 0,1.29 V 5.49 H 6.78 V 4.63 Z m 0,0.86 H 5.92 v 0.43 h 0.43 z m 0,0.43 V 6.35 H 6.78 V 5.92 Z M 6.78,6.35 V 6.78 H 7.64 V 5.92 H 7.21 V 6.35 Z M 7.64,6.78 V 7.21 H 8.07 V 7.64 H 8.5 V 6.78 Z m 0,0.43 H 7.21 V 7.64 H 7.64 Z M 7.21,7.64 H 6.78 v 0.43 h 0.43 z m 0,0.43 V 8.5 H 7.64 V 8.07 Z M 7.64,8.5 V 8.93 H 8.07 V 8.5 Z m 0.43,0 H 8.93 V 8.07 H 8.07 Z m 0.86,0 V 9.79 H 9.36 V 9.36 H 9.79 V 8.93 H 9.36 V 8.5 Z M 8.07,8.93 V 9.79 H 8.5 V 8.93 Z m -0.43,0 H 6.78 v 0.86 h 0.86 z m -0.86,0 V 8.07 H 5.92 V 8.5 h 0.43 v 0.43 z m -0.43,0 H 5.92 V 9.79 H 6.35 Z M 6.78,7.64 V 6.78 H 5.92 V 7.21 H 6.35 V 7.64 Z M 5.92,6.78 V 5.92 H 5.49 V 6.35 H 5.06 V 6.78 Z M 5.06,6.35 V 5.92 H 4.2 v 0.43 z m -0.86,0 H 3.77 V 5.92 H 2.91 V 6.78 H 4.2 Z M 7.21,2.91 V 5.49 H 9.79 V 2.91 Z M 3.34,3.34 H 5.06 V 5.06 H 3.34 Z m 4.3,0 H 9.36 V 5.06 H 7.64 Z M 3.77,3.77 V 4.63 H 4.63 V 3.77 Z m 4.3,0 V 4.63 H 8.93 V 3.77 Z m 0,2.15 V 6.35 H 8.93 V 6.78 H 9.79 V 6.35 H 9.36 V 5.92 Z M 2.91,7.21 V 9.79 H 5.49 V 7.21 Z m 6.02,0 V 7.64 H 9.36 V 8.07 H 9.79 V 7.21 Z M 3.34,7.64 H 5.06 V 9.36 H 3.34 Z M 3.77,8.07 V 8.93 H 4.63 V 8.07 Z"
     id="path2"
     inkscape:connector-curvature="0"
     style="fill:#2c89a0" />
</svg>
